X:0311
T:Duncan Gray.
M:2/4
L:1/16
Q:1/4=104
I: :: :: :: ::
Z:Jack Campin * www.campin.me.uk * 2009
K:G
 D2G2   F2G2  | A2B2   F4    | G4      A3c   | B2G2     G4 :|
 B2d2   d2(cB)| c2c2   Tc4   | B2(cB)  A2G2  | F2E2     D4  |
 d2(ed) c2(dc)| B2cB  (AcBA) | G4      A3c   | B2G2     G4 :|
 D2G2  (cBAG) |(ABcA)  TF4   |(GAB).G (ABc).A| B2G2     G4 :|
(B2d2) (d2g2) |(c2e2)  (e2g2)| B2d2    d2cB  |(cB)(AG) TF2ED|
 e2g2   d2g2  | B2g2    ac'ba| G4      ABcA  | B2G2     G4 :|

